X: 13410
T: Flitter
R: jig
M: 6/8
K: Aminor
|:cAG Aed|cAG ABc|d2c B2A|GAB E3|
cAG Aed|cAG ABc|d2B A2G|A3 A2B:|
|:ced efg|aed efg|aed e2d|cec BeB|
ced efg|aed efg|a2e d2c|BAG A3:|

